Obsidian-Light/status/scalable/non-starred-symbolic.svg

<svg height="16" width="16" xmlns="http://www.w3.org/2000/svg"><path d="m8 1.46875-2.15625 4.375-4.8125.71875 3.46875 3.40625-.8125 4.8125 4.3125-2.28125 4.3125 2.28125-.8125-4.8125 3.5-3.40625-4.84375-.71875zm.03125 2.09375 1.28125 2.6875a.93318664.93318664 0 0 0 .71875.5l2.96875.4375-2.15625 2.09375a.93318664.93318664 0 0 0 -.28125.8125l.53125 2.96875-2.65625-1.40625a.93318664.93318664 0 0 0 -.875 0l-2.65625 1.40625.5-2.96875a.93318664.93318664 0 0 0 -.25-.8125l-2.15625-2.0625 3-.4375a.93318664.93318664 0 0 0 .6875-.5z" fill="#bebebe"/></svg>

<?xml version="1.0" encoding="UTF-8" standalone="no"?>
<!-- Created with Inkscape (http://www.inkscape.org/) -->

<svg
   xmlns:dc="http://purl.org/dc/elements/1.1/"
   xmlns:cc="http://creativecommons.org/ns#"
   xmlns:rdf="http://www.w3.org/1999/02/22-rdf-syntax-ns#"
   xmlns:svg="http://www.w3.org/2000/svg"
   xmlns="http://www.w3.org/2000/svg"
   xmlns:xlink="http://www.w3.org/1999/xlink"
   xmlns:sodipodi="http://sodipodi.sourceforge.net/DTD/sodipodi-0.dtd"
   xmlns:inkscape="http://www.inkscape.org/namespaces/inkscape"
   width="16"
   height="16"
   id="svg2"
   sodipodi:version="0.32"
   inkscape:version="0.48.1 r9760"
   version="1.0"
   sodipodi:docname="non-starred-symbolic.svg"
   inkscape:output_extension="org.inkscape.output.svg.inkscape"
   style="display:inline">
  <defs
     id="defs4">
    <inkscape:perspective
       sodipodi:type="inkscape:persp3d"
       inkscape:vp_x="0 : 11 : 1"
       inkscape:vp_y="0 : 1000 : 0"
       inkscape:vp_z="22 : 11 : 1"
       inkscape:persp3d-origin="11 : 7.3333333 : 1"
       id="perspective29" />
    <linearGradient
       id="linearGradient4081">
      <stop
         style="stop-color:#aaaaaa;stop-opacity:1;"
         offset="0"
         id="stop4083" />
      <stop
         style="stop-color:#f0f0f0;stop-opacity:1;"
         offset="1"
         id="stop4085" />
    </linearGradient>
    <linearGradient
       inkscape:collect="always"
       xlink:href="#linearGradient4081"
       id="linearGradient3527"
       gradientUnits="userSpaceOnUse"
       gradientTransform="translate(-39,0)"
       x1="6.8391123"
       y1="16.300354"
       x2="6.8391123"
       y2="6.0528178" />
    <linearGradient
       inkscape:collect="always"
       xlink:href="#linearGradient4081"
       id="linearGradient3538"
       gradientUnits="userSpaceOnUse"
       gradientTransform="translate(-39,0)"
       x1="16.5"
       y1="19.542921"
       x2="16.5"
       y2="2.5" />
    <linearGradient
       inkscape:collect="always"
       xlink:href="#linearGradient4081"
       id="linearGradient3540"
       gradientUnits="userSpaceOnUse"
       gradientTransform="translate(-39,0)"
       x1="14.524625"
       y1="17.41902"
       x2="14.524625"
       y2="4.625" />
    <linearGradient
       inkscape:collect="always"
       xlink:href="#linearGradient4081"
       id="linearGradient3542"
       gradientUnits="userSpaceOnUse"
       gradientTransform="translate(-39,0)"
       x1="10.50519"
       y1="15.28125"
       x2="10.50519"
       y2="6.7458849" />
    <linearGradient
       inkscape:collect="always"
       xlink:href="#linearGradient4081"
       id="linearGradient3266"
       x1="9"
       y1="4.5"
       x2="14"
       y2="4.5"
       gradientUnits="userSpaceOnUse"
       gradientTransform="matrix(0,-1,1,0,6,16)" />
    <linearGradient
       inkscape:collect="always"
       xlink:href="#linearGradient4081"
       id="linearGradient3274"
       x1="11.984375"
       y1="20"
       x2="11.984375"
       y2="7.96875"
       gradientUnits="userSpaceOnUse" />
    <linearGradient
       inkscape:collect="always"
       xlink:href="#linearGradient4081"
       id="linearGradient3280"
       gradientUnits="userSpaceOnUse"
       gradientTransform="matrix(0,-1,1,0,7,16)"
       x1="9"
       y1="4.5"
       x2="14"
       y2="4.5" />
    <linearGradient
       inkscape:collect="always"
       xlink:href="#linearGradient4081"
       id="linearGradient3287"
       gradientUnits="userSpaceOnUse"
       gradientTransform="matrix(0,-1,1,0,7,16)"
       x1="9"
       y1="4.5"
       x2="14"
       y2="4.5" />
    <linearGradient
       inkscape:collect="always"
       xlink:href="#linearGradient4081"
       id="linearGradient3293"
       gradientUnits="userSpaceOnUse"
       x1="11.984375"
       y1="20"
       x2="11.984375"
       y2="7.96875"
       gradientTransform="translate(-1,0)" />
    <inkscape:perspective
       id="perspective4374"
       inkscape:persp3d-origin="0.5 : 0.33333333 : 1"
       inkscape:vp_z="1 : 0.5 : 1"
       inkscape:vp_y="0 : 1000 : 0"
       inkscape:vp_x="0 : 0.5 : 1"
       sodipodi:type="inkscape:persp3d" />
    <linearGradient
       inkscape:collect="always"
       xlink:href="#StandardGradient-1"
       id="linearGradient3833-8"
       x1="54"
       y1="3.5"
       x2="59"
       y2="3.5"
       gradientUnits="userSpaceOnUse"
       gradientTransform="translate(-53,53)" />
    <linearGradient
       id="StandardGradient-1"
       gradientTransform="matrix(0.9984539,0,0,0.9984539,-0.0459776,0.05767558)"
       x1="10.710332"
       y1="1.9963325"
       x2="10.710332"
       y2="18.974037"
       gradientUnits="userSpaceOnUse">
      <stop
         style="stop-color:#000000;stop-opacity:0.86274511;"
         offset="0"
         id="stop3277-4" />
      <stop
         style="stop-color:#000000;stop-opacity:0.47058824;"
         offset="1"
         id="stop3279-3" />
    </linearGradient>
    <linearGradient
       y2="3.5"
       x2="59"
       y1="3.5"
       x1="54"
       gradientTransform="translate(-45,53)"
       gradientUnits="userSpaceOnUse"
       id="linearGradient3829-0"
       xlink:href="#SpecificGradient-5"
       inkscape:collect="always" />
    <linearGradient
       id="SpecificGradient-5"
       x1="10.761708"
       y1="3.9999998"
       x2="10.761708"
       y2="18.011395"
       gradientUnits="userSpaceOnUse">
      <stop
         style="stop-color:#a50000;stop-opacity:1;"
         offset="0"
         id="stop3292-8" />
      <stop
         style="stop-color:#e73800;stop-opacity:1;"
         offset="1"
         id="stop3294-0" />
    </linearGradient>
    <linearGradient
       inkscape:collect="always"
       xlink:href="#StandardGradient-1"
       id="linearGradient3659"
       gradientUnits="userSpaceOnUse"
       x1="-15.94624"
       y1="-0.66848934"
       x2="-15.94624"
       y2="17.008953"
       gradientTransform="matrix(1.0182469,0,0,1.0182469,24.23721,3.6806872)" />
    <linearGradient
       inkscape:collect="always"
       xlink:href="#StandardGradient-1"
       id="linearGradient3663"
       gradientUnits="userSpaceOnUse"
       x1="-15.94624"
       y1="-0.66848934"
       x2="-15.94624"
       y2="17.008953" />
    <linearGradient
       inkscape:collect="always"
       xlink:href="#StandardGradient-1"
       id="linearGradient3668"
       gradientUnits="userSpaceOnUse"
       x1="-15.94624"
       y1="-0.66848934"
       x2="-15.94624"
       y2="17.008953" />
    <clipPath
       clipPathUnits="userSpaceOnUse"
       id="clipPath3673">
      <path
         style="fill:#ff00ff;fill-opacity:1;stroke:none;display:inline"
         d="m -23.802881,-2.6326495 0,21.6057615 21.6057616,0 0,-21.6057615 -21.6057616,0 z M -13,-0.66848934 l 2.27106,2.85417024 3.5907302,-0.7365601 -0.09207,3.6828003 3.1917603,1.7186402 -2.4245102,2.7621002 1.3503601,3.3759005 -3.6214203,0.55242 -1.1355301,3.46797 -3.13038,-1.90278 -3.130381,1.90278 -1.13553,-3.46797 -3.62142,-0.55242 1.35036,-3.3759005 -2.42451,-2.7621002 3.19176,-1.7186402 -0.09207,-3.6828003 3.590731,0.7365601 L -13,-0.66848934 z"
         id="path3675"
         inkscape:connector-curvature="0" />
    </clipPath>
    <linearGradient
       inkscape:collect="always"
       xlink:href="#StandardGradient-1"
       id="linearGradient5781"
       gradientUnits="userSpaceOnUse"
       x1="-15.94624"
       y1="-0.66848934"
       x2="-15.94624"
       y2="17.008953" />
    <linearGradient
       inkscape:collect="always"
       xlink:href="#StandardGradient-1"
       id="linearGradient5785"
       gradientUnits="userSpaceOnUse"
       x1="-15.94624"
       y1="-0.66848934"
       x2="-15.94624"
       y2="17.008953"
       gradientTransform="matrix(1.0182469,0,0,1.0182469,24.23721,2.6806872)" />
    <linearGradient
       y2="14.827774"
       x2="12.245839"
       y1="5.3143144"
       x1="10.735273"
       gradientUnits="userSpaceOnUse"
       id="linearGradient3714"
       xlink:href="#linearGradient3651"
       inkscape:collect="always" />
    <linearGradient
       id="linearGradient3651">
      <stop
         style="stop-color:#f3840c;stop-opacity:1;"
         offset="0"
         id="stop3653" />
      <stop
         style="stop-color:#f9ba3f;stop-opacity:1;"
         offset="1"
         id="stop3655" />
    </linearGradient>
  </defs>
  <sodipodi:namedview
     id="base"
     pagecolor="#ffffff"
     bordercolor="#e7e7e7"
     borderopacity="1"
     inkscape:pageopacity="0.0"
     inkscape:pageshadow="2"
     inkscape:zoom="16.008898"
     inkscape:cx="-6.1721211"
     inkscape:cy="4.1464274"
     inkscape:document-units="px"
     inkscape:current-layer="layer1"
     showgrid="true"
     inkscape:showpageshadow="false"
     showguides="false"
     inkscape:guide-bbox="true"
     inkscape:window-width="1920"
     inkscape:window-height="1030"
     inkscape:window-x="0"
     inkscape:window-y="25"
     inkscape:window-maximized="1">
    <sodipodi:guide
       orientation="1,0"
       position="0,112"
       id="guide2383" />
    <sodipodi:guide
       orientation="0,1"
       position="26.278146,128"
       id="guide2385" />
    <sodipodi:guide
       orientation="1,0"
       position="128,54.082119"
       id="guide2387" />
    <sodipodi:guide
       orientation="0,1"
       position="78.156291,0"
       id="guide2389" />
    <sodipodi:guide
       orientation="0,1"
       position="60.863576,64.084768"
       id="guide2391" />
    <inkscape:grid
       type="xygrid"
       id="grid3672"
       visible="true"
       enabled="true"
       empspacing="8"
       snapvisiblegridlinesonly="true" />
  </sodipodi:namedview>
  <metadata
     id="metadata7">
    <rdf:RDF>
      <cc:Work
         rdf:about="">
        <dc:format>image/svg+xml</dc:format>
        <dc:type
           rdf:resource="http://purl.org/dc/dcmitype/StillImage" />
        <dc:title></dc:title>
      </cc:Work>
    </rdf:RDF>
  </metadata>
  <g
     inkscape:label="Icon"
     inkscape:groupmode="layer"
     id="layer1"
     style="display:inline"
     transform="translate(0,-6)">
    <path
       style="color:#000000;fill:#bebebe;fill-opacity:1;fill-rule:nonzero;stroke:none;stroke-width:1;marker:none;visibility:visible;display:inline;overflow:visible;enable-background:accumulate"
       d="M 8 1.46875 L 5.84375 5.84375 L 1.03125 6.5625 L 4.5 9.96875 L 3.6875 14.78125 L 8 12.5 L 12.3125 14.78125 L 11.5 9.96875 L 15 6.5625 L 10.15625 5.84375 L 8 1.46875 z M 8.03125 3.5625 L 9.3125 6.25 A 0.93318664 0.93318664 0 0 0 10.03125 6.75 L 13 7.1875 L 10.84375 9.28125 A 0.93318664 0.93318664 0 0 0 10.5625 10.09375 L 11.09375 13.0625 L 8.4375 11.65625 A 0.93318664 0.93318664 0 0 0 7.5625 11.65625 L 4.90625 13.0625 L 5.40625 10.09375 A 0.93318664 0.93318664 0 0 0 5.15625 9.28125 L 3 7.21875 L 6 6.78125 A 0.93318664 0.93318664 0 0 0 6.6875 6.28125 L 8.03125 3.5625 z "
       transform="translate(0,6)"
       id="path3841" />
  </g>
</svg>
